X: 22
T:Gallant Hussar - Ducklington
S:OY(AB)3A
N:Tune as played for Grand Union Morris
N:www.grandunionmorris.co.uk
M:6/8
L:1/8
Q:100
K:G
"A"D | G2 B ABc | dBe c2 A | GAB cBd |[1 G3 F2  |[2 G3 G2 ||
"B" B/2c/2 | dBd g2 g | ecA c2 B | ABc dBA |  G3 F2 D | G2 B ABc | dBe c
2 A | GAB cBd |  G3 G2 :||
